X: 19699
T: Jenny Lind
R: polka
M: 2/4
K: Gmajor
FA/F/ GB|Af f/e/f|Ae e/d/e|Ad d/c/d/A/|
FA/F/ GB|Af f>f|ge e/c/A/c/|ed d:|
gg/f/ e/f/g/e/|dB B/A/G/B/|cA A/F/D/F/|AG G (3d/e/f/|
g>f e/f/g/e/|dB B/A/G/B/|cA A/F/D/F/|1 AG G:|2 AG G2||
|:AA dF|AG G/F/G|AA gc|ed d/c/d|
AA dF|AG G/F/G|AA gc|df d2:|
|:B/c/d B/c/d|eF F/E/F|eF F/E/F|ge d2|
B/c/d B/c/d|eF F/E/F|eF DF|1 GB G2:|2 GB G||

